Origami/32x32/apps/starbound.svg

<svg width="32" height="32" version="1.1" viewBox="0 0 32 32" xmlns="http://www.w3.org/2000/svg">
 <rect x="2" y="3" width="28" height="28" rx="1.4" ry="1.4" style="opacity:.2"/>
 <rect x="2" y="2" width="28" height="28" rx="1.4" ry="1.4" style="fill:#7767c0"/>
 <path d="m18.834 5.3075-1.49 2.256a6.5 6.5 0 0 0 -0.844 -0.0635 6.5 6.5 0 0 0 -2.491 0.498l-2.019-1.79 0.543 2.6533a6.5 6.5 0 0 0 -1.414 1.5147 22 22 0 0 0 -7.619 -1.376 22 22 0 0 0 -1.5 0.0752v1.0368a21.5 21.5 0 0 1 2 -0.112 21.5 21.5 0 0 1 21.431 20h7e-3a22 22 0 0 0 -4.038 -11.755 6.5 6.5 0 0 0 1.086 -1.728l2.726-0.164-2.277-1.502a6.5 6.5 0 0 0 0.065 -0.851 6.5 6.5 0 0 0 -0.488 -2.463l1.8-2.0272-2.658 0.5442a6.5 6.5 0 0 0 -2.658 -2.0501zm-2.334 3.1925a5.5 5.5 0 0 1 5.5 5.5 5.5 5.5 0 0 1 -1.225 3.446 22 22 0 0 0 -8.718 -6.675 5.5 5.5 0 0 1 4.443 -2.271z" style="opacity:.2"/>
 <path d="M 18.834,4.8076 17.344,7.0635 A 6.5,6.5 0 0 0 16.5,7 6.5,6.5 0 0 0 14.009,7.498 L 11.99,5.708 12.533,8.3615 A 6.5,6.5 0 0 0 11.119,9.876 22,22 0 0 0 3.5,8.5 22,22 0 0 0 2,8.575 V 9.6125 A 21.5,21.5 0 0 1 4,9.5 21.5,21.5 0 0 1 25.46,30 H 25.474 A 22,22 0 0 0 21.4,17.745 6.5,6.5 0 0 0 22.486,16.017 L 25.212,15.854 22.935,14.351 A 6.5,6.5 0 0 0 23,13.5 6.5,6.5 0 0 0 22.512,11.037 L 24.311,9.01 21.654,9.5535 A 6.5,6.5 0 0 0 18.996,7.504 Z M 16.5,8 A 5.5,5.5 0 0 1 22,13.5 5.5,5.5 0 0 1 20.775,16.946 22,22 0 0 0 12.057,10.271 5.5,5.5 0 0 1 16.5,8 Z" style="fill:#ffffff"/>
 <path d="m3.4004 2c-0.7756 0-1.4004 0.6248-1.4004 1.4004v1c0-0.7756 0.6248-1.4004 1.4004-1.4004h25.1996c0.775 0 1.4 0.6248 1.4 1.4004v-1c0-0.7756-0.625-1.4004-1.4-1.4004h-25.1996z" style="fill:#ffffff;opacity:.1"/>
</svg>

<svg xmlns="http://www.w3.org/2000/svg" width="32" height="32" version="1.1" viewBox="0 0 32 32">
 <rect style="opacity:0.2" width="28" height="28" x="2" y="3" rx="1.4" ry="1.4"/>
 <rect style="fill:#7767c0" width="28" height="28" x="2" y="2" rx="1.4" ry="1.4"/>
 <path style="opacity:0.2" d="M 18.834,5.3075 17.344,7.5635 A 6.5,6.5 0 0 0 16.5,7.5 6.5,6.5 0 0 0 14.009,7.998 L 11.99,6.208 12.533,8.8613 A 6.5,6.5 0 0 0 11.119,10.376 22,22 0 0 0 3.5,9 22,22 0 0 0 2,9.0752 V 10.112 A 21.5,21.5 0 0 1 4,10 21.5,21.5 0 0 1 25.431,30 H 25.438 A 22,22 0 0 0 21.4,18.245 6.5,6.5 0 0 0 22.486,16.517 L 25.212,16.353 22.935,14.851 A 6.5,6.5 0 0 0 23,14 6.5,6.5 0 0 0 22.512,11.537 L 24.312,9.5098 21.654,10.054 A 6.5,6.5 0 0 0 18.996,8.0039 Z M 16.5,8.5 A 5.5,5.5 0 0 1 22,14 5.5,5.5 0 0 1 20.775,17.446 22,22 0 0 0 12.057,10.771 5.5,5.5 0 0 1 16.5,8.5 Z"/>
 <path style="fill:#ffffff" d="M 18.834,4.8076 17.344,7.0635 A 6.5,6.5 0 0 0 16.5,7 6.5,6.5 0 0 0 14.009,7.498 L 11.99,5.708 12.533,8.3615 A 6.5,6.5 0 0 0 11.119,9.876 22,22 0 0 0 3.5,8.5 22,22 0 0 0 2,8.575 V 9.6125 A 21.5,21.5 0 0 1 4,9.5 21.5,21.5 0 0 1 25.46,30 H 25.474 A 22,22 0 0 0 21.4,17.745 6.5,6.5 0 0 0 22.486,16.017 L 25.212,15.854 22.935,14.351 A 6.5,6.5 0 0 0 23,13.5 6.5,6.5 0 0 0 22.512,11.037 L 24.311,9.01 21.654,9.5535 A 6.5,6.5 0 0 0 18.996,7.504 Z M 16.5,8 A 5.5,5.5 0 0 1 22,13.5 5.5,5.5 0 0 1 20.775,16.946 22,22 0 0 0 12.057,10.271 5.5,5.5 0 0 1 16.5,8 Z"/>
 <path style="fill:#ffffff;opacity:0.1" d="M 3.4004 2 C 2.6248 2 2 2.6248 2 3.4004 L 2 4.4004 C 2 3.6248 2.6248 3 3.4004 3 L 28.6 3 C 29.375 3 30 3.6248 30 4.4004 L 30 3.4004 C 30 2.6248 29.375 2 28.6 2 L 3.4004 2 z"/>
</svg>
